packages/storefront-lwc/src/assets/fonts/flags/4x3/rw.svg

<svg height="480" width="640" xmlns="http://www.w3.org/2000/svg" xmlns:xlink="http://www.w3.org/1999/xlink"><path d="m0 0h640v480h-640z" fill="#20603d"/><path d="m0 0h640v360h-640z" fill="#fad201"/><path d="m0 0h640v240h-640z" fill="#00a1de"/><g transform="matrix(.66667 0 0 .66667 511 125.4)"><g id="a"><path id="b" d="m116.1 0-80.408 4.7 76.452 25.35-78.884-16.274 67.286 44.273-71.986-36.134 53.535 60.18-60.18-53.534 36.135 71.986-44.273-67.287 16.272 78.884-25.349-76.452-4.7 80.408-1-117.1z" fill="#e5be01"/><use height="100%" transform="scale(1 -1)" width="100%" xlink:href="#b"/></g><use height="100%" transform="scale(-1 1)" width="100%" xlink:href="#a"/><circle fill="#e5be01" r="34.3" stroke="#00a1de" stroke-width="3.4"/></g></svg>

<svg xmlns="http://www.w3.org/2000/svg" xmlns:xlink="http://www.w3.org/1999/xlink" height="480" width="640" id="flag-icon-css-rw">
  <path fill="#20603d" d="M0 0h640v480H0z"/>
  <path fill="#fad201" d="M0 0h640v360H0z"/>
  <path fill="#00a1de" d="M0 0h640v240H0z"/>
  <g transform="translate(511 125.4) scale(.66667)">
    <g id="b">
      <path id="a" d="M116.1 0L35.692 4.7l76.452 25.35L33.26 13.776l67.286 44.273L28.56 21.915l53.535 60.18-60.18-53.534 36.135 71.986L13.777 33.26l16.272 78.884L4.7 35.692 0 116.1-1-1z" fill="#e5be01"/>
      <use height="100%" width="100%" xlink:href="#a" transform="scale(1 -1)"/>
    </g>
    <use height="100%" width="100%" xlink:href="#b" transform="scale(-1 1)"/>
    <circle r="34.3" fill="#e5be01" stroke="#00a1de" stroke-width="3.4"/>
  </g>
</svg>
